src/assets/duotone/SearchZoomIn.svg

<svg width="24" height="24" viewBox="0 0 24 24"  xmlns="http://www.w3.org/2000/svg">
<path opacity="0.4" d="M11.01 20.02C15.9861 20.02 20.02 15.9861 20.02 11.01C20.02 6.03391 15.9861 2 11.01 2C6.03391 2 2 6.03391 2 11.01C2 15.9861 6.03391 20.02 11.01 20.02Z" />
<path d="M14.25 11C14.25 11.41 13.91 11.75 13.5 11.75H11.75V13.5C11.75 13.91 11.41 14.25 11 14.25C10.59 14.25 10.25 13.91 10.25 13.5V11.75H8.5C8.09 11.75 7.75 11.41 7.75 11C7.75 10.59 8.09 10.25 8.5 10.25H10.25V8.5C10.25 8.09 10.59 7.75 11 7.75C11.41 7.75 11.75 8.09 11.75 8.5V10.25H13.5C13.91 10.25 14.25 10.59 14.25 11Z" />
<path d="M21.9901 18.95C21.6601 18.34 20.9601 18 20.0201 18C19.3101 18 18.7001 18.29 18.3401 18.79C17.9801 19.29 17.9001 19.96 18.1201 20.63C18.5501 21.93 19.3001 22.22 19.7101 22.27C19.7701 22.28 19.8301 22.28 19.9001 22.28C20.3401 22.28 21.0201 22.09 21.6801 21.1C22.2101 20.33 22.3101 19.56 21.9901 18.95Z" />
</svg>

<?xml version="1.0" encoding="UTF-8"?>
<svg width="24" height="24" viewBox="0 0 24 24" xmlns="http://www.w3.org/2000/svg">
 <path d="m11.01 20.02c4.9761 0 9.01-4.0339 9.01-9.01 0-4.9761-4.0339-9.01-9.01-9.01-4.9761 0-9.01 4.0339-9.01 9.01 0 4.9761 4.0339 9.01 9.01 9.01z" opacity=".4"/>
 <path d="m14.25 11c0 0.41-0.34 0.75-0.75 0.75h-1.75v1.75c0 0.41-0.34 0.75-0.75 0.75s-0.75-0.34-0.75-0.75v-1.75h-1.75c-0.41 0-0.75-0.34-0.75-0.75s0.34-0.75 0.75-0.75h1.75v-1.75c0-0.41 0.34-0.75 0.75-0.75s0.75 0.34 0.75 0.75v1.75h1.75c0.41 0 0.75 0.34 0.75 0.75z"/>
 <path d="m21.99 18.95c-0.33-0.61-1.03-0.95-1.97-0.95-0.71 0-1.32 0.29-1.68 0.79s-0.44 1.17-0.22 1.84c0.43 1.3 1.18 1.59 1.59 1.64 0.06 0.01 0.12 0.01 0.19 0.01 0.44 0 1.12-0.19 1.78-1.18 0.53-0.77 0.63-1.54 0.31-2.15z"/>
</svg>
